build/svg/sfx2/res/indexoff_big.svg

<?xml version="1.0" encoding="UTF-8" standalone="no"?>
<svg
   xmlns:dc="http://purl.org/dc/elements/1.1/"
   xmlns:cc="http://creativecommons.org/ns#"
   xmlns:rdf="http://www.w3.org/1999/02/22-rdf-syntax-ns#"
   xmlns:svg="http://www.w3.org/2000/svg"
   xmlns="http://www.w3.org/2000/svg"
   xmlns:sodipodi="http://sodipodi.sourceforge.net/DTD/sodipodi-0.dtd"
   xmlns:inkscape="http://www.inkscape.org/namespaces/inkscape"
   viewBox="0 0 24 24"
   version="1.1"
   id="svg4"
   sodipodi:docname="indexoff_big.svg"
   inkscape:version="0.92.5 (2060ec1f9f, 2020-04-08)"
   inkscape:export-filename="/home/jupiter007/Libreoffice yaru theme fullcolor/build/sfx2/res/indexoff_big.png"
   inkscape:export-xdpi="96"
   inkscape:export-ydpi="96">
  <metadata
     id="metadata10">
    <rdf:RDF>
      <cc:Work
         rdf:about="">
        <dc:format>image/svg+xml</dc:format>
        <dc:type
           rdf:resource="http://purl.org/dc/dcmitype/StillImage" />
      </cc:Work>
    </rdf:RDF>
  </metadata>
  <defs
     id="defs8" />
  <sodipodi:namedview
     pagecolor="#ffffff"
     bordercolor="#666666"
     borderopacity="1"
     objecttolerance="10"
     gridtolerance="10"
     guidetolerance="10"
     inkscape:pageopacity="0"
     inkscape:pageshadow="2"
     inkscape:window-width="1920"
     inkscape:window-height="1011"
     id="namedview6"
     showgrid="true"
     inkscape:zoom="27.812867"
     inkscape:cx="6.2873329"
     inkscape:cy="14.373379"
     inkscape:window-x="0"
     inkscape:window-y="32"
     inkscape:window-maximized="1"
     inkscape:current-layer="svg4">
    <inkscape:grid
       type="xygrid"
       id="grid817" />
  </sodipodi:namedview>
  <path
     inkscape:connector-curvature="0"
     d="M 4.5000001,2.5000002 C 3.3919999,2.5000002 2.5,3.3920002 2.5,4.5000001 V 21.5 h 19 V 4.5000001 c 0,-1.108 -0.892,-1.9999999 -2,-1.9999999 z"
     id="path46"
     style="fill:#ffffff;fill-opacity:1;stroke:#8c8c8c" />
  <path
     inkscape:connector-curvature="0"
     style="fill:#ffffff"
     d="M 2.9999999,8.0000009 H 21 V 21 H 2.9999999 Z"
     id="path50" />
  <path
     inkscape:connector-curvature="0"
     style="fill:none;stroke:#a0a0a0"
     d="M 2.9999999,7.5000004 H 21"
     id="path52" />
  <path
     d="m 12,4.0000001 h 2 v 2 h -2 z"
     id="path900"
     inkscape:connector-curvature="0"
     style="opacity:0.6;fill:#000000;fill-opacity:1;stroke-width:2" />
  <path
     d="m 15,4.0000001 h 2 v 2 h -2 z"
     id="path898"
     inkscape:connector-curvature="0"
     style="opacity:0.6;fill:#000000;fill-opacity:1;stroke-width:2" />
  <path
     d="m 18,4.0000001 h 2 v 2 h -2 z"
     id="path54"
     inkscape:connector-curvature="0"
     style="fill:#ff0000;fill-opacity:1;stroke-width:2" />
  <path
     inkscape:connector-curvature="0"
     style="opacity:0.05;fill:none;stroke:#000000"
     d="M 2.9999999,8.5000009 H 21"
     id="path56" />
  <path
     inkscape:connector-curvature="0"
     style="fill:#d85eca;fill-opacity:1"
     d="M 8,7.0000003 H 7 4 3 V 22 H 4 7 8 V 21 7.9999999 Z M 7,7.9999999 V 21 H 4 V 7.9999999 Z"
     id="path58"
     sodipodi:nodetypes="cccccccccccccccc" />
  <path
     d="M 7,7.9999998 V 21 H 4 V 7.9999999 Z"
     id="path62"
     inkscape:connector-curvature="0"
     style="opacity:1;fill:#ebaee4;fill-opacity:1"
     sodipodi:nodetypes="ccccc" />
  <path
     sodipodi:nodetypes="sssss"
     inkscape:connector-curvature="0"
     id="path839"
     d="m 16,13 c 3.865992,0 6.999999,2.790861 6.999999,5 0,2.209139 -3.134007,5 -6.999999,5 -3.865993,0 -7.0000002,-2.790861 -7.0000002,-5 0,-2.209139 3.1340072,-5 7.0000002,-5 z"
     style="opacity:0.6;fill:#000000;fill-opacity:1;stroke:#000000;stroke-width:2;stroke-linecap:round;stroke-linejoin:round;stroke-miterlimit:4;stroke-dasharray:none;stroke-opacity:1" />
  <path
     style="opacity:1;fill:#ffffff;fill-opacity:1;stroke:none;stroke-width:2;stroke-linecap:round;stroke-linejoin:round;stroke-miterlimit:4;stroke-dasharray:none;stroke-opacity:1"
     d="m 16,13 c 3.865992,0 6.999999,2.790861 6.999999,5 0,2.209139 -3.134007,5 -6.999999,5 -3.865993,0 -7.0000002,-2.790861 -7.0000002,-5 0,-2.209139 3.1340072,-5 7.0000002,-5 z"
     id="path826-5"
     inkscape:connector-curvature="0"
     sodipodi:nodetypes="sssss" />
  <path
     d="m 16,16 c -1.104569,0 -2,0.89543 -2,2 0,1.104569 0.895431,2 2,2 1.104569,0 1.999999,-0.89543 1.999999,-2 0.02896,-0.194894 0.02896,-0.392997 0,-0.587891 C 17.825991,17.801139 17.42455,18.037143 17,18 16.447715,18 16,17.552285 16,17 15.96318,16.574973 16.200048,16.173388 16.589844,16 16.39431,15.97085 16.195534,15.97085 16,16 Z"
     id="path2-3"
     inkscape:connector-curvature="0"
     style="fill:#232629"
     sodipodi:nodetypes="csscccccc" />
  <path
     inkscape:connector-curvature="0"
     style="opacity:1;fill:#232629;fill-opacity:1;stroke:none;stroke-width:2;stroke-linecap:round;stroke-linejoin:round;stroke-miterlimit:4;stroke-dasharray:none;stroke-opacity:1"
     d="m 16,14 a 4,4 0 0 0 -4,4 4,4 0 0 0 4,4 4,4 0 0 0 3.999999,-4 A 4,4 0 0 0 16,14 Z m 0,1 A 3,3 0 0 1 18.999999,18 3,3 0 0 1 16,21 3,3 0 0 1 13,18 3,3 0 0 1 16,15 Z"
     id="path833" />
  <rect
     y="23.490431"
     x="-3.5814023"
     height="1"
     width="16"
     id="rect853"
     style="opacity:0.6;fill:#000000;fill-opacity:1;fill-rule:evenodd;stroke:#000000;stroke-width:2;stroke-linecap:butt;stroke-linejoin:round;stroke-miterlimit:4;stroke-dasharray:none;stroke-opacity:1"
     transform="rotate(-30)" />
  <rect
     style="opacity:1;fill:#aee3f8;fill-opacity:1;fill-rule:evenodd;stroke:none;stroke-width:2;stroke-linecap:butt;stroke-linejoin:round;stroke-miterlimit:4;stroke-dasharray:none;stroke-opacity:1"
     id="rect851"
     width="16"
     height="1"
     x="-3.5814023"
     y="23.490431"
     transform="rotate(-30)" />
</svg>

<svg xmlns="http://www.w3.org/2000/svg" viewBox="0 0 24 24"><path d="M4.5 2.5c-1.108 0-2 .892-2 2v17h19v-17c0-1.108-.892-2-2-2z" fill="#fff" stroke="#8c8c8c"/><path d="M3 8h18v13H3z" fill="#fff"/><path d="M3 7.5h18" fill="none" stroke="#a0a0a0"/><path d="M12 4h2v2h-2zM15 4h2v2h-2z" opacity=".6"/><path d="M18 4h2v2h-2z" fill="red"/><path d="M3 8.5h18" opacity=".05" fill="none" stroke="#000"/><path d="M8 7H3v15h5V8zM7 8v13H4V8z" fill="#d85eca"/><path d="M7 8v13H4V8z" fill="#ebaee4"/><path d="M16 13c3.866 0 7 2.79 7 5s-3.134 5-7 5-7-2.79-7-5 3.134-5 7-5z" opacity=".6" stroke="#000" stroke-width="2" stroke-linecap="round" stroke-linejoin="round"/><path d="M16 13c3.866 0 7 2.79 7 5s-3.134 5-7 5-7-2.79-7-5 3.134-5 7-5z" fill="#fff"/><path d="M16 16a2 2 0 102 2 2 2 0 000-.588A1 1 0 0117 18a1 1 0 01-1-1 1 1 0 01.59-1 2 2 0 00-.59 0z" fill="#232629"/><path d="M16 14a4 4 0 00-4 4 4 4 0 004 4 4 4 0 004-4 4 4 0 00-4-4zm0 1a3 3 0 013 3 3 3 0 01-3 3 3 3 0 01-3-3 3 3 0 013-3z" fill="#232629"/><path opacity=".6" fill-rule="evenodd" stroke="#000" stroke-width="2" stroke-linejoin="round" d="M8.644 22.133l13.856-8L23 15 9.144 23z"/><path fill="#aee3f8" fill-rule="evenodd" d="M8.644 22.133l13.856-8L23 15 9.144 23z"/></svg>
